storage/app/icons/phosphoricons/duotone/users-three-duotone.svg

<svg xmlns="http://www.w3.org/2000/svg" fill="currentColor" viewBox="0 0 256 256"><path d="M168 144a40 40 0 1 1-40-40 40 40 0 0 1 40 40M64 56a32 32 0 1 0 32 32 32 32 0 0 0-32-32m128 0a32 32 0 1 0 32 32 32 32 0 0 0-32-32" opacity=".2"/><path d="M244.8 150.4a8 8 0 0 1-11.2-1.6A51.6 51.6 0 0 0 192 128a8 8 0 0 1 0-16 24 24 0 1 0-23.24-30 8 8 0 1 1-15.5-4A40 40 0 1 1 219 117.51a67.94 67.94 0 0 1 27.43 21.68 8 8 0 0 1-1.63 11.21M190.92 212a8 8 0 1 1-13.85 8 57 57 0 0 0-98.15 0 8 8 0 1 1-13.84-8 72.06 72.06 0 0 1 33.74-29.92 48 48 0 1 1 58.36 0A72.06 72.06 0 0 1 190.92 212M128 176a32 32 0 1 0-32-32 32 32 0 0 0 32 32m-56-56a8 8 0 0 0-8-8 24 24 0 1 1 23.24-30 8 8 0 1 0 15.5-4A40 40 0 1 0 37 117.51a67.94 67.94 0 0 0-27.4 21.68 8 8 0 1 0 12.8 9.61A51.6 51.6 0 0 1 64 128a8 8 0 0 0 8-8"/></svg>

<svg xmlns="http://www.w3.org/2000/svg" viewBox="0 0 256 256" fill="currentColor"><path d="M168,144a40,40,0,1,1-40-40A40,40,0,0,1,168,144ZM64,56A32,32,0,1,0,96,88,32,32,0,0,0,64,56Zm128,0a32,32,0,1,0,32,32A32,32,0,0,0,192,56Z" opacity="0.2"/><path d="M244.8,150.4a8,8,0,0,1-11.2-1.6A51.6,51.6,0,0,0,192,128a8,8,0,0,1,0-16,24,24,0,1,0-23.24-30,8,8,0,1,1-15.5-4A40,40,0,1,1,219,117.51a67.94,67.94,0,0,1,27.43,21.68A8,8,0,0,1,244.8,150.4ZM190.92,212a8,8,0,1,1-13.85,8,57,57,0,0,0-98.15,0,8,8,0,1,1-13.84-8,72.06,72.06,0,0,1,33.74-29.92,48,48,0,1,1,58.36,0A72.06,72.06,0,0,1,190.92,212ZM128,176a32,32,0,1,0-32-32A32,32,0,0,0,128,176ZM72,120a8,8,0,0,0-8-8A24,24,0,1,1,87.24,82a8,8,0,1,0,15.5-4A40,40,0,1,0,37,117.51,67.94,67.94,0,0,0,9.6,139.19a8,8,0,1,0,12.8,9.61A51.6,51.6,0,0,1,64,128,8,8,0,0,0,72,120Z"/></svg>
